actions/24/labplot-zoom-in-y.svg

<?xml version="1.0" encoding="UTF-8" standalone="no"?>
<svg
   width="24"
   height="24"
   version="1.1"
   id="svg9"
   sodipodi:docname="zoom-in-y.svg"
   inkscape:version="1.1.2 (0a00cf5339, 2022-02-04)"
   xmlns:inkscape="http://www.inkscape.org/namespaces/inkscape"
   xmlns:sodipodi="http://sodipodi.sourceforge.net/DTD/sodipodi-0.dtd"
   xmlns="http://www.w3.org/2000/svg"
   xmlns:svg="http://www.w3.org/2000/svg">
  <sodipodi:namedview
     id="namedview11"
     pagecolor="#ffffff"
     bordercolor="#666666"
     borderopacity="1.0"
     inkscape:pageshadow="2"
     inkscape:pageopacity="0.0"
     inkscape:pagecheckerboard="0"
     showgrid="false"
     inkscape:zoom="34.458333"
     inkscape:cx="11.956469"
     inkscape:cy="7.356711"
     inkscape:window-width="954"
     inkscape:window-height="519"
     inkscape:window-x="961"
     inkscape:window-y="556"
     inkscape:window-maximized="1"
     inkscape:current-layer="g7" />
  <defs
     id="defs3">
    <style
       id="current-color-scheme"
       type="text/css">
   .ColorScheme-Text { color:#eeeeec; } .ColorScheme-Highlight { color:#367bf0; } .ColorScheme-NeutralText { color:#ffcc44; } .ColorScheme-PositiveText { color:#3db47e; } .ColorScheme-NegativeText { color:#dd4747; }
  </style>
  </defs>
  <g
     transform="translate(4,4)"
     id="g7">
    <path
       style="fill:currentColor"
       class="ColorScheme-Text"
       d="M 3,2 C 2,2 2,3 2,3 V 7 H 4 V 4 H 7 V 2 Z m 9,7 v 3 H 9 v 2 h 4 c 1,0 1,-1 1,-1 V 9 Z M 2,8 v 6 H 8 V 8 Z M 11.412853,2.412853 10.531059,2.4689413 8.5518449,4.4481551 8.6877149,5 V 5 H 10 v 3 h 2 V 5 h 1.17645 v 0 l 0.209726,-0.6138236 z"
       id="path5"
       sodipodi:nodetypes="sccccccsccccsccccccccccccccccccccc" />
  </g>
</svg>

<svg xmlns="http://www.w3.org/2000/svg" width="24" height="24" version="1.1">
 <defs>
  <style id="current-color-scheme" type="text/css">
   .ColorScheme-Text { color:#eeeeec; } .ColorScheme-Highlight { color:#367bf0; } .ColorScheme-NeutralText { color:#ffcc44; } .ColorScheme-PositiveText { color:#3db47e; } .ColorScheme-NegativeText { color:#dd4747; }
  </style>
 </defs>
 <g transform="translate(4,4)">
  <path style="fill:currentColor" class="ColorScheme-Text" d="M 3,2 C 2,2 2,3 2,3 V 7 H 4 V 4 H 7 V 2 Z M 12,9 V 12 H 9 V 14 H 13 C 14,14 14,13 14,13 V 9 Z M 2,8 V 14 H 8 V 8 Z M 11,2 8,5 H 10 V 8 H 12 V 5 H 14 Z"/>
 </g>
</svg>
